X: 44
T:Butterfly, The
M:9/8
L:1/8
R:Slip Jig
O:Irish
D:|! |!
K:Em
"Em"B2E "C"G2E "D"F3|"Em"B2E "C"G2E "D"FED|"Em"B2E "C"G2E "D"F3|
"G"B2d d2B "D"AFD:|!
|:"Em"B2c "C"e2f "Em"g3|"Em"B2c "C"g2e "Em"dBA|"Em"B2c "C"e2f "Em"g2a|"E
